assets/svg/1F353.svg

<svg xmlns="http://www.w3.org/2000/svg" viewBox="0 0 64 64" enable-background="new 0 0 64 64"><path fill="#0b7d70" d="m9.146 16.394c2.279-2.427 11.968.148 13.61 1.68 1.64 1.54-4.657 4.542-7.926 6.617-3.365 2.145-6.671 4.472-8.312 2.936-1.637-1.54.351-8.805 2.628-11.233"/><path fill="#be202e" d="m53.45 14.411c7.251 14.46 4.323 42.633-6.955 48.29-11.269 5.651-37.1-8.093-44.35-22.548-7.253-14.461 11.01-15.792 22.288-21.447 11.278-5.656 21.764-18.75 29.02-4.294"/><path fill="#991b2b" d="m45 59.63c-8.75-5.504-17.434-11.441-25.545-17.872-6.19-4.915-9.334-11.12-9.423-17.396-7.219 3.02-12.335 6.952-7.897 15.792 7.251 14.455 33.08 28.2 44.35 22.547.602-.305 1.174-.684 1.725-1.105-1.087-.644-2.16-1.305-3.213-1.966"/><g fill="#2bb573"><path d="m16.525.146c.263.065.898 1.588.894 1.741-.065 3.863 5.701 11.09 6.566 12.08 2 2.275 2.726 5.733 1.272 6.112-1.402.37-6.165-3.854-7.152-4.664-2.423-1.988-4.57-5.02-5.66-7.965-1.149-3.103-.036-8.259 4.08-7.301"/><path d="m27.19 6.593c2.667-2.593 13.336.753 15.09 2.55 1.751 1.8-5.412 4.833-9.162 6.991-3.87 2.214-7.667 4.65-9.423 2.85-1.748-1.794.834-9.798 3.494-12.391"/></g><g fill="#dd5263"><path d="m17.397 33.644c.833.167 1.42 3.52 1.268 4.313-.159.796-1.614-.42-2.49-.941-.9-.544-1.84-1.021-1.686-1.819.155-.797 2.071-1.715 2.908-1.553"/><path d="m25.16 42.87c.836.167 1.423 3.52 1.271 4.313-.159.797-1.614-.42-2.49-.941-.9-.544-1.84-1.02-1.686-1.818.154-.797 2.071-1.715 2.905-1.554"/><path d="m32.906 50.43c.839-.126 2.542 2.819 2.673 3.615.126.805-1.657.164-2.662-.025-1.031-.201-2.077-.327-2.208-1.128-.128-.8 1.355-2.323 2.197-2.462"/><path d="m41.86 45.546c.88.305.776 4.769.432 5.797-.351 1.029-1.679-.715-2.53-1.494-.871-.805-1.799-1.527-1.455-2.563.348-1.024 2.671-2.036 3.553-1.74"/><path d="m39.15 36.34c.957.33.909 4.985.55 6.05-.363 1.065-1.82-.77-2.756-1.597-.955-.852-1.966-1.618-1.607-2.692.359-1.062 2.856-2.084 3.813-1.762"/><path d="m35.712 27.493c.954.33.909 4.984.55 6.05-.363 1.065-1.822-.771-2.756-1.597-.954-.854-1.966-1.619-1.607-2.693.356-1.062 2.856-2.084 3.813-1.761"/><path d="m32.25 19.942c.957.333.909 4.986.551 6.05-.363 1.065-1.821-.77-2.756-1.597-.955-.851-1.966-1.616-1.607-2.691.358-1.064 2.855-2.086 3.812-1.764"/><path d="m42.655 56.831c.842-.113 2.499 2.858 2.616 3.658.111.806-1.662.135-2.662-.074-1.028-.214-2.076-.356-2.19-1.161-.116-.803 1.393-2.302 2.236-2.423"/></g><path fill="#04a69c" d="m11.446 21.584c1.216-2.719 10.156-3.398 11.994-2.584 1.838.818-2.597 5.212-4.75 7.922-2.212 2.803-4.318 5.748-6.153 4.924-1.839-.813-2.299-7.538-1.091-10.262"/><g fill="#d34f65"><path d="m7.959 38.748c.848.083 1.777 3.357 1.708 4.162-.076.809-1.649-.251-2.575-.684-.951-.443-1.934-.822-1.864-1.631.068-.809 1.883-1.92 2.731-1.847"/><path d="m16.05 47.45c.847.08 1.777 3.354 1.706 4.158-.074.809-1.646-.248-2.573-.682-.951-.445-1.938-.824-1.864-1.633.071-.808 1.883-1.918 2.731-1.843"/><path d="m25.02 53.898c.824-.213 2.823 2.54 3.034 3.321.207.786-1.633.333-2.651.247-1.046-.092-2.1-.109-2.314-.893-.21-.782 1.11-2.45 1.931-2.675"/><path d="m35.07 59.3c.655-.16 2.202 2.046 2.358 2.664.154.626-1.297.243-2.102.16-.826-.087-1.659-.112-1.818-.737-.154-.621.91-1.922 1.562-2.087"/></g><g fill="#dd5263"><path d="m49.915 25.567c.59.611-.819 3.709-1.391 4.274-.582.57-1.097-1.254-1.525-2.184-.435-.956-.942-1.88-.361-2.452.574-.569 2.675-.243 3.277.362"/><path d="m49.644 16.05c.589.609-.82 3.707-1.393 4.277-.58.567-1.095-1.257-1.524-2.184-.435-.958-.941-1.884-.361-2.454.576-.57 2.675-.244 3.278.361"/><path d="m49.657 34.15c.565.64-.985 3.667-1.584 4.206-.606.544-1.038-1.305-1.422-2.249-.393-.975-.855-1.922-.253-2.467.605-.543 2.689-.12 3.259.51"/><path d="m49.14 44.685c.585.615-.856 3.697-1.438 4.259-.585.563-1.078-1.266-1.498-2.199-.424-.959-.922-1.89-.337-2.455.582-.564 2.678-.22 3.273.395"/><path d="m49.15 53.82c.575.626-.917 3.685-1.506 4.236-.596.553-1.062-1.282-1.466-2.225-.409-.968-.888-1.902-.294-2.46.591-.553 2.683-.172 3.266.449"/><path d="m51.763 20.918c-.355.609 1.396 2.806 1.971 3.15.578.337.626-1.227.781-2.058.158-.852.376-1.694-.199-2.036-.578-.343-2.197.34-2.553.944"/><path d="m53.707 30.542c-.35.609 1.399 2.808 1.975 3.149.579.34.625-1.227.779-2.058.161-.853.381-1.695-.197-2.036-.58-.343-2.199.34-2.557.945"/><path d="m53.727 39.664c-.542.449.346 3.12.769 3.633.43.519 1.01-.935 1.438-1.662.444-.743.941-1.461.517-1.979-.428-.518-2.183-.435-2.724.008"/><path d="m52.51 49.01c-.422.366.316 2.462.655 2.867.345.405.788-.755 1.118-1.335.342-.597.724-1.169.381-1.576-.344-.404-1.724-.314-2.154.044"/></g></svg>

<?xml version="1.0" encoding="utf-8"?>
<!-- Generator: Adobe Illustrator 16.0.0, SVG Export Plug-In . SVG Version: 6.00 Build 0)  -->
<!DOCTYPE svg PUBLIC "-//W3C//DTD SVG 1.1//EN" "http://www.w3.org/Graphics/SVG/1.1/DTD/svg11.dtd">
<svg version="1.1"
	 id="Layer_1" xmlns:dc="http://purl.org/dc/elements/1.1/" xmlns:cc="http://creativecommons.org/ns#" xmlns:rdf="http://www.w3.org/1999/02/22-rdf-syntax-ns#" xmlns:svg="http://www.w3.org/2000/svg" xmlns:sodipodi="http://sodipodi.sourceforge.net/DTD/sodipodi-0.dtd" xmlns:inkscape="http://www.inkscape.org/namespaces/inkscape" inkscape:export-ydpi="90" inkscape:export-xdpi="90" inkscape:export-filename="D:\TESTINGEMOJI\SVGTEST\1F353.png" sodipodi:docname="1F353.svg" inkscape:version="0.48.5 r10040"
	 xmlns="http://www.w3.org/2000/svg" xmlns:xlink="http://www.w3.org/1999/xlink" x="0px" y="0px" width="64px" height="64px"
	 viewBox="0 0 64 64" enable-background="new 0 0 64 64" xml:space="preserve">
<sodipodi:namedview  inkscape:cy="32" inkscape:cx="32" inkscape:zoom="3.6875" showgrid="false" guidetolerance="10" gridtolerance="10" objecttolerance="10" bordercolor="#666666" pagecolor="#ffffff" borderopacity="1" id="namedview3649" inkscape:window-height="480" inkscape:window-width="640" inkscape:pageshadow="2" inkscape:pageopacity="0" inkscape:current-layer="Layer_1" inkscape:window-maximized="0" inkscape:window-y="326" inkscape:window-x="414">
	</sodipodi:namedview>
<g>
	<path fill="#0B7D70" d="M9.146,16.394c2.279-2.427,11.968,0.148,13.61,1.68c1.64,1.54-4.657,4.542-7.926,6.617
		c-3.365,2.145-6.671,4.472-8.312,2.936C4.881,26.087,6.869,18.822,9.146,16.394z"/>
</g>
<g>
	<path fill="#BE202E" d="M53.447,14.411c7.251,14.46,4.323,42.633-6.955,48.289C35.223,68.351,9.39,54.607,2.139,40.152
		C-5.114,25.691,13.151,24.36,24.427,18.705C35.705,13.049,46.191-0.045,53.447,14.411z"/>
</g>
<g>
	<path fill="#991B2B" d="M45.004,59.628c-8.75-5.504-17.434-11.441-25.545-17.872c-6.19-4.915-9.334-11.119-9.423-17.396
		c-7.219,3.019-12.335,6.952-7.897,15.792C9.39,54.607,35.223,68.351,46.492,62.699c0.602-0.305,1.174-0.684,1.725-1.105
		C47.13,60.95,46.057,60.289,45.004,59.628z"/>
</g>
<g>
	<path fill="#2BB573" d="M16.525,0.146c0.263,0.065,0.898,1.588,0.894,1.741c-0.065,3.863,5.701,11.093,6.566,12.077
		c2.004,2.275,2.726,5.733,1.272,6.112c-1.402,0.37-6.165-3.854-7.152-4.664c-2.423-1.988-4.57-5.021-5.66-7.965
		C11.296,4.344,12.409-0.812,16.525,0.146z"/>
</g>
<g>
	<path fill="#2BB573" d="M27.194,6.593C29.861,4,40.53,7.346,42.285,9.143c1.751,1.8-5.412,4.833-9.162,6.991
		c-3.87,2.214-7.667,4.65-9.423,2.85C21.952,17.19,24.534,9.186,27.194,6.593z"/>
</g>
<g>
	<path fill="#DD5263" d="M17.397,33.644c0.833,0.167,1.42,3.52,1.268,4.313c-0.159,0.796-1.614-0.42-2.49-0.941
		c-0.9-0.544-1.84-1.021-1.686-1.819C14.644,34.4,16.56,33.482,17.397,33.644z"/>
</g>
<g>
	<path fill="#DD5263" d="M25.164,42.87c0.836,0.167,1.423,3.52,1.271,4.313c-0.159,0.797-1.614-0.42-2.49-0.941
		c-0.9-0.544-1.84-1.02-1.686-1.818C22.413,43.627,24.33,42.709,25.164,42.87z"/>
</g>
<g>
	<path fill="#DD5263" d="M32.906,50.427c0.839-0.126,2.542,2.819,2.673,3.615c0.126,0.805-1.657,0.164-2.662-0.025
		c-1.031-0.201-2.077-0.327-2.208-1.128C30.581,52.089,32.064,50.566,32.906,50.427z"/>
</g>
<g>
	<path fill="#DD5263" d="M41.86,45.546c0.88,0.305,0.776,4.769,0.432,5.797c-0.351,1.029-1.679-0.715-2.53-1.494
		c-0.871-0.805-1.799-1.527-1.455-2.563C38.655,46.262,40.978,45.25,41.86,45.546z"/>
</g>
<g>
	<path fill="#DD5263" d="M39.146,36.341c0.957,0.33,0.909,4.985,0.55,6.051c-0.363,1.065-1.82-0.77-2.756-1.597
		c-0.955-0.852-1.966-1.618-1.607-2.692C35.692,37.041,38.189,36.019,39.146,36.341z"/>
</g>
<g>
	<path fill="#DD5263" d="M35.712,27.493c0.954,0.33,0.909,4.984,0.55,6.051c-0.363,1.065-1.822-0.771-2.756-1.597
		c-0.954-0.854-1.966-1.619-1.607-2.693C32.255,28.192,34.755,27.17,35.712,27.493z"/>
</g>
<g>
	<path fill="#DD5263" d="M32.251,19.942c0.957,0.333,0.909,4.986,0.551,6.052c-0.363,1.065-1.821-0.77-2.756-1.597
		c-0.955-0.851-1.966-1.616-1.607-2.691C28.797,20.642,31.294,19.62,32.251,19.942z"/>
</g>
<g>
	<path fill="#DD5263" d="M42.655,56.831c0.842-0.113,2.499,2.858,2.616,3.658c0.111,0.806-1.662,0.135-2.662-0.074
		c-1.028-0.214-2.076-0.356-2.19-1.161C40.303,58.451,41.812,56.952,42.655,56.831z"/>
</g>
<g>
	<path fill="#04A69C" d="M11.446,21.584c1.216-2.719,10.156-3.398,11.994-2.584c1.838,0.818-2.597,5.212-4.75,7.922
		c-2.212,2.803-4.318,5.748-6.153,4.924C10.698,31.033,10.238,24.308,11.446,21.584z"/>
</g>
<g>
	<path fill="#D34F65" d="M7.959,38.748c0.848,0.083,1.777,3.357,1.708,4.162c-0.076,0.809-1.649-0.251-2.575-0.684
		c-0.951-0.443-1.934-0.822-1.864-1.631C5.296,39.786,7.111,38.675,7.959,38.748z"/>
</g>
<g>
	<path fill="#D34F65" d="M16.055,47.452c0.847,0.08,1.777,3.354,1.706,4.158c-0.074,0.809-1.646-0.248-2.573-0.682
		c-0.951-0.445-1.938-0.824-1.864-1.633C13.395,48.487,15.207,47.377,16.055,47.452z"/>
</g>
<g>
	<path fill="#D34F65" d="M25.017,53.898c0.824-0.213,2.823,2.54,3.034,3.321c0.207,0.786-1.633,0.333-2.651,0.247
		c-1.046-0.092-2.1-0.109-2.314-0.893C22.876,55.791,24.196,54.123,25.017,53.898z"/>
</g>
<g>
	<path fill="#D34F65" d="M35.074,59.296c0.655-0.16,2.202,2.046,2.358,2.664c0.154,0.626-1.297,0.243-2.102,0.16
		c-0.826-0.087-1.659-0.112-1.818-0.737C33.358,60.762,34.422,59.461,35.074,59.296z"/>
</g>
<g>
	<path fill="#DD5263" d="M49.915,25.567c0.59,0.611-0.819,3.709-1.391,4.274c-0.582,0.57-1.097-1.254-1.525-2.184
		c-0.435-0.956-0.942-1.88-0.361-2.452C47.212,24.636,49.313,24.962,49.915,25.567z"/>
</g>
<g>
	<path fill="#DD5263" d="M49.644,16.055c0.589,0.609-0.82,3.707-1.393,4.277c-0.58,0.567-1.095-1.257-1.524-2.184
		c-0.435-0.958-0.941-1.884-0.361-2.454C46.942,15.124,49.041,15.45,49.644,16.055z"/>
</g>
<g>
	<path fill="#DD5263" d="M49.657,34.148c0.565,0.64-0.985,3.667-1.584,4.206c-0.606,0.544-1.038-1.305-1.422-2.249
		c-0.393-0.975-0.855-1.922-0.253-2.467C47.003,33.095,49.087,33.518,49.657,34.148z"/>
</g>
<g>
	<path fill="#DD5263" d="M49.144,44.685c0.585,0.615-0.856,3.697-1.438,4.259c-0.585,0.563-1.078-1.266-1.498-2.199
		c-0.424-0.959-0.922-1.89-0.337-2.455C46.453,43.726,48.549,44.07,49.144,44.685z"/>
</g>
<g>
	<path fill="#DD5263" d="M49.148,53.82c0.575,0.626-0.917,3.685-1.506,4.236c-0.596,0.553-1.062-1.282-1.466-2.225
		c-0.409-0.968-0.888-1.902-0.294-2.46C46.473,52.818,48.565,53.199,49.148,53.82z"/>
</g>
<g>
	<g>
		<path fill="#DD5263" d="M51.763,20.918c-0.355,0.609,1.396,2.806,1.971,3.15c0.578,0.337,0.626-1.227,0.781-2.058
			c0.158-0.852,0.376-1.694-0.199-2.036C53.738,19.631,52.119,20.314,51.763,20.918z"/>
	</g>
	<g>
		<path fill="#DD5263" d="M53.707,30.542c-0.35,0.609,1.399,2.808,1.975,3.149c0.579,0.34,0.625-1.227,0.779-2.058
			c0.161-0.853,0.381-1.695-0.197-2.036C55.684,29.254,54.065,29.937,53.707,30.542z"/>
	</g>
	<g>
		<path fill="#DD5263" d="M53.727,39.664c-0.542,0.449,0.346,3.12,0.769,3.633c0.43,0.519,1.009-0.935,1.438-1.662
			c0.444-0.743,0.941-1.461,0.517-1.979C56.023,39.138,54.268,39.221,53.727,39.664z"/>
	</g>
	<g>
		<path fill="#DD5263" d="M52.508,49.013c-0.422,0.366,0.316,2.462,0.655,2.867c0.345,0.405,0.788-0.755,1.118-1.335
			c0.342-0.597,0.724-1.169,0.381-1.576C54.318,48.565,52.938,48.655,52.508,49.013z"/>
	</g>
</g>
</svg>
